packages/ui-icons/svg/Solid/equation.svg

<svg viewBox="0 0 1920 1920" version="1.1" xmlns="http://www.w3.org/2000/svg">
    <path d="M1919.98871,168.954824 L1919.98871,394.950118 L1087.27341,394.950118 L611.113412,1646.33835 L398.332235,1641.59482 L203.960471,1053.05835 L-0.0112941176,1053.05835 L-0.0112941176,827.176 L285.504,827.176 L392.798118,904.766588 L513.080471,1268.88894 L903.856941,241.801882 L1009.45694,168.954824 L1919.98871,168.954824 Z M1265.72047,788.990588 L1505.89671,1029.16682 L1746.05929,789.047059 L1905.75812,948.632941 L1665.55971,1188.82982 L1905.75812,1429.02824 L1746.05929,1588.61412 L1505.89571,1348.49382 L1265.72047,1588.67059 L1106.02165,1428.97176 L1346.20471,1188.82982 L1106.02165,948.689412 L1265.72047,788.990588 Z" stroke="none" stroke-width="1" fill-rule="evenodd"/>
</svg>

<svg viewBox="0 0 1920 1920" xmlns="http://www.w3.org/2000/svg">
    <path d="M1919.989 168.955V394.95h-832.716l-476.16 1251.388-212.78-4.743-194.373-588.537H-.01V827.176h285.515l107.294 77.59L513.08 1268.89 903.857 241.802l105.6-72.847h910.532ZM1265.72 788.99l240.177 240.176 240.162-240.12 159.7 159.586-240.2 240.197 240.2 240.198-159.7 159.586-240.163-240.12-240.176 240.177-159.698-159.7 240.183-240.141-240.183-240.14 159.698-159.7Z" fill-rule="evenodd"/>
</svg>
